fs/document_page_break_20_filled.svg

<svg viewBox="0 0 20 20" fill="none" xmlns="http://www.w3.org/2000/svg" height="1em" width="1em">
  <path d="M16 6.0001V2.5C16 2.22386 15.774 2 15.5 2H4.49603C4.22208 2 4 2.22386 4 2.5V6.0001C4 6.82807 4.6667 7.5001 5.4881 7.5001H14.5C15.3214 7.5001 16 6.82807 16 6.0001ZM3 9.5001C2.72386 9.5001 2.5 9.72396 2.5 10.0001C2.5 10.2762 2.72386 10.5001 3 10.5001H4.2C4.47614 10.5001 4.7 10.2762 4.7 10.0001C4.7 9.72396 4.47614 9.5001 4.2 9.5001H3ZM6.2 9.5001C5.92386 9.5001 5.7 9.72396 5.7 10.0001C5.7 10.2762 5.92386 10.5001 6.2 10.5001H7.4C7.67614 10.5001 7.9 10.2762 7.9 10.0001C7.9 9.72396 7.67614 9.5001 7.4 9.5001H6.2ZM8.9 10.0001C8.9 9.72396 9.12386 9.5001 9.4 9.5001H10.6C10.8761 9.5001 11.1 9.72396 11.1 10.0001C11.1 10.2762 10.8761 10.5001 10.6 10.5001H9.4C9.12386 10.5001 8.9 10.2762 8.9 10.0001ZM12.6 9.5001C12.3239 9.5001 12.1 9.72396 12.1 10.0001C12.1 10.2762 12.3239 10.5001 12.6 10.5001H13.8C14.0761 10.5001 14.3 10.2762 14.3 10.0001C14.3 9.72396 14.0761 9.5001 13.8 9.5001H12.6ZM15.3 10.0001C15.3 9.72396 15.5239 9.5001 15.8 9.5001H17C17.2761 9.5001 17.5 9.72396 17.5 10.0001C17.5 10.2762 17.2761 10.5001 17 10.5001H15.8C15.5239 10.5001 15.3 10.2762 15.3 10.0001ZM16 17.5002V14.0001C16 13.1721 15.3214 12.5001 14.5 12.5001H5.4881C4.6667 12.5001 4 13.1721 4 14.0001V17.5002C4 17.7763 4.22208 18.0002 4.49603 18.0002L15.5 18.0002C15.774 18.0002 16 17.7763 16 17.5002Z" fill="#212121"/>
</svg>

<svg viewBox="0 0 20 20" fill="none" xmlns="http://www.w3.org/2000/svg" height="1em" width="1em">
  <path d="M16 6V2.5c0-.276-.226-.5-.5-.5H4.496A.498.498 0 0 0 4 2.5V6c0 .828.667 1.5 1.488 1.5H14.5c.821 0 1.5-.672 1.5-1.5ZM3 9.5a.5.5 0 0 0 0 1h1.2a.5.5 0 0 0 0-1H3Zm3.2 0a.5.5 0 0 0 0 1h1.2a.5.5 0 0 0 0-1H6.2Zm2.7.5a.5.5 0 0 1 .5-.5h1.2a.5.5 0 0 1 0 1H9.4a.5.5 0 0 1-.5-.5Zm3.7-.5a.5.5 0 0 0 0 1h1.2a.5.5 0 0 0 0-1h-1.2Zm2.7.5a.5.5 0 0 1 .5-.5H17a.5.5 0 0 1 0 1h-1.2a.5.5 0 0 1-.5-.5Zm.7 7.5V14c0-.828-.679-1.5-1.5-1.5H5.488C4.667 12.5 4 13.172 4 14v3.5c0 .276.222.5.496.5H15.5c.274 0 .5-.224.5-.5Z" fill="#212121"/>
</svg>
